Dominus_Dark_Funeral/scalable/apps/qtractor.svg

<svg xmlns="http://www.w3.org/2000/svg" xmlns:xlink="http://www.w3.org/1999/xlink" width="48" height="48" viewBox="0 0 12.7 12.7"><defs><linearGradient id="f"><stop offset="0" stop-color="#28170b"/><stop offset="1" stop-color="#ffe6d5"/></linearGradient><linearGradient id="e"><stop offset="0" stop-color="#483745"/><stop offset="1" stop-color="#e3dbe2"/></linearGradient><linearGradient id="a"><stop offset="0"/><stop offset="1" stop-opacity="0"/></linearGradient><linearGradient id="b"><stop offset="0" stop-color="#214478"/><stop offset="1" stop-color="#3771c8"/></linearGradient><linearGradient id="c"><stop offset="0" stop-color="#fff"/><stop offset="1" stop-color="#fff" stop-opacity="0"/></linearGradient><linearGradient id="d"><stop offset="0" stop-color="#ffe253"/><stop offset="1" stop-color="#c8ab37"/></linearGradient><linearGradient y2="18.016" x2="39.961" y1="18.016" x1="8.131" gradientUnits="userSpaceOnUse" id="h" gradientTransform="matrix(.2157 0 0 .2157 1.169 1.94)"><stop offset="0" stop-color="#fff"/><stop offset=".123" stop-color="#c4c4c4"/><stop offset=".247" stop-color="#909090"/><stop offset=".372" stop-color="#646464"/><stop offset=".497" stop-color="#404040"/><stop offset=".622" stop-color="#242424"/><stop offset=".748" stop-color="#101010"/><stop offset=".873" stop-color="#040404"/><stop offset="1"/></linearGradient><radialGradient xlink:href="#e" id="g" cx="6.35" cy="290.65" fx="6.35" fy="290.65" r="5.35" gradientTransform="matrix(.99998 -.00687 .00893 1.30027 -2.6 -371.53)" gradientUnits="userSpaceOnUse"/></defs><path d="M6.35.1C4.81.1 3.57.39 2.66.97A3.67 3.67 0 0 0 1 4.22c0 1.91 1.54 4.47 2.01 5.2.54.85 1.13 1.61 1.65 2.16.68.7 1.21 1.03 1.7 1.03.47 0 1-.33 1.68-1.03.52-.55 1.11-1.31 1.65-2.15.47-.74 2-3.3 2-5.21 0-1.42-.57-2.54-1.65-3.25A6.75 6.75 0 0 0 6.35.09z" fill="url(#g)"/><path d="M6.349 1.894a3.931 3.931 0 0 0-3.932 3.932A3.931 3.931 0 0 0 6.35 9.757a3.931 3.931 0 0 0 3.931-3.931A3.931 3.931 0 0 0 6.35 1.894zm0 3.238a.694.694 0 0 1 .693.694.694.694 0 0 1-.693.693.694.694 0 0 1-.694-.693.694.694 0 0 1 .694-.694z" opacity=".3" fill="#fff"/><path d="M1.04 3.9c0 .1-.04.2-.04.32 0 1.91 1.54 4.47 2.01 5.2.54.85 1.13 1.61 1.65 2.16.68.7 1.21 1.03 1.69 1.03s1.01-.33 1.69-1.03c.52-.55 1.11-1.31 1.65-2.15.47-.74 2-3.3 2-5.21 0-.11-.02-.21-.03-.32-.02.42-.08.86-.21 1.3-.15.53-.36 1.05-.58 1.53-.44.97-.95 1.8-1.18 2.17-.54.84-1.13 1.6-1.65 2.15-.34.35-.64.61-.92.78-.28.17-.53.25-.77.25s-.5-.08-.77-.25a4.76 4.76 0 0 1-.92-.78A14.41 14.41 0 0 1 3.01 8.9c-.23-.37-.74-1.2-1.18-2.17-.22-.48-.43-1-.58-1.52-.13-.45-.19-.89-.21-1.31z" opacity=".5"/><path d="M8.445 8.33c0 .54-.57.82-1.06.96-.72.2-1.3.18-1.91 0-.5-.15-.97-.45-.97-.96V6.47c0-.62.46-1 .97-1h1.7c.65 0 1.29-.66 1.28-1.31V3.5h.85c.56 0 .82.41.96.96.19.76.2 1.33 0 1.93-.2.58-.4 1.03-.96 1.03h-2.87 2z" fill="none"/><path d="M5.323 2.156a3.396 3.396 0 0 1 2.037 0c.533.15 1.023.48 1.023 1.023v2.08c0 .298-.426.97-1.023.97H5.462c-.533 0-1.28.586-1.28 1.278v.81h-.905c-.597 0-.875-.436-1.024-1.023-.202-.82-.213-1.428 0-2.057.213-.619.427-1.098 1.024-1.098h3.06-2.133V3.094c0-.426.512-.768 1.12-.938z" fill="none"/><path d="M6.349 2.159a3.667 3.667 0 0 0-3.667 3.667A3.667 3.667 0 0 0 6.35 9.493a3.667 3.667 0 0 0 3.667-3.667 3.667 3.667 0 0 0-3.667-3.667zm0 3.02a.647.647 0 0 1 .647.647.647.647 0 0 1-.647.647.647.647 0 0 1-.647-.647.647.647 0 0 1 .647-.647z" fill="#151e25"/><path d="M6.349 2.374a3.451 3.451 0 0 0-3.451 3.452 3.451 3.451 0 0 0 3.45 3.451A3.451 3.451 0 0 0 9.8 5.826 3.451 3.451 0 0 0 6.35 2.374zm0 2.805a.647.647 0 0 1 .647.647.647.647 0 0 1-.647.647.647.647 0 0 1-.647-.647.647.647 0 0 1 .647-.647z" opacity=".1" fill="url(#h)"/><path d="M6.349 5.664a.161.161 0 0 0-.011 0 .161.161 0 0 0-.016.003.161.161 0 0 0-.016.003.161.161 0 0 0-.016.005.161.161 0 0 0-.014.007.161.161 0 0 0-.014.008.161.161 0 0 0-.014.01.161.161 0 0 0-.012.01.161.161 0 0 0-.01.012.161.161 0 0 0-.01.013.161.161 0 0 0-.009.014.161.161 0 0 0-.006.014.161.161 0 0 0-.006.015.161.161 0 0 0-.004.016.161.161 0 0 0-.003.016.161.161 0 0 0 0 .016.161.161 0 0 0 0 .011.161.161 0 0 0 .002.016.161.161 0 0 0 .003.016.161.161 0 0 0 .005.015.161.161 0 0 0 .007.015.161.161 0 0 0 .008.014.161.161 0 0 0 .01.013.161.161 0 0 0 .01.012.161.161 0 0 0 .012.011.161.161 0 0 0 .013.01.161.161 0 0 0 .014.008.161.161 0 0 0 .014.008.161.161 0 0 0 .015.005.161.161 0 0 0 .016.004.161.161 0 0 0 .016.002.161.161 0 0 0 .016.001.161.161 0 0 0 .011 0 .161.161 0 0 0 .016-.003.161.161 0 0 0 .016-.003.161.161 0 0 0 .015-.005.161.161 0 0 0 .015-.006.161.161 0 0 0 .014-.009.161.161 0 0 0 .013-.01.161.161 0 0 0 .012-.01.161.161 0 0 0 .011-.011.161.161 0 0 0 .01-.013.161.161 0 0 0 .008-.014.161.161 0 0 0 .007-.014.161.161 0 0 0 .006-.015.161.161 0 0 0 .004-.016.161.161 0 0 0 .002-.016.161.161 0 0 0 .001-.016.161.161 0 0 0 0-.012.161.161 0 0 0-.002-.016.161.161 0 0 0-.004-.015.161.161 0 0 0-.005-.016.161.161 0 0 0-.007-.015.161.161 0 0 0-.007-.013.161.161 0 0 0-.01-.013.161.161 0 0 0-.01-.013.161.161 0 0 0-.012-.01.161.161 0 0 0-.013-.01.161.161 0 0 0-.014-.009.161.161 0 0 0-.014-.007.161.161 0 0 0-.015-.005.161.161 0 0 0-.016-.004.161.161 0 0 0-.016-.003.161.161 0 0 0-.016 0z" fill="#333"/><path d="M6.349 4.316a1.51 1.51 0 0 0-1.51 1.51 1.51 1.51 0 0 0 1.51 1.51 1.51 1.51 0 0 0 1.51-1.51 1.51 1.51 0 0 0-1.51-1.51zm0 1.348a.161.161 0 0 1 .016.001.161.161 0 0 1 .016.003.161.161 0 0 1 .016.004.161.161 0 0 1 .015.005.161.161 0 0 1 .014.007.161.161 0 0 1 .014.008.161.161 0 0 1 .013.01.161.161 0 0 1 .011.011.161.161 0 0 1 .011.013.161.161 0 0 1 .01.013.161.161 0 0 1 .007.013.161.161 0 0 1 .007.015.161.161 0 0 1 .005.016.161.161 0 0 1 .004.015.161.161 0 0 1 .002.016.161.161 0 0 1 0 .012.161.161 0 0 1-.001.016.161.161 0 0 1-.002.016.161.161 0 0 1-.004.016.161.161 0 0 1-.006.015.161.161 0 0 1-.007.014.161.161 0 0 1-.008.014.161.161 0 0 1-.01.013.161.161 0 0 1-.01.011.161.161 0 0 1-.013.01.161.161 0 0 1-.013.01.161.161 0 0 1-.014.009.161.161 0 0 1-.015.006.161.161 0 0 1-.015.005.161.161 0 0 1-.016.003.161.161 0 0 1-.016.003.161.161 0 0 1-.011 0 .161.161 0 0 1-.016 0 .161.161 0 0 1-.016-.003.161.161 0 0 1-.016-.004.161.161 0 0 1-.015-.005.161.161 0 0 1-.014-.008.161.161 0 0 1-.014-.008.161.161 0 0 1-.013-.01.161.161 0 0 1-.012-.01.161.161 0 0 1-.01-.013.161.161 0 0 1-.01-.013.161.161 0 0 1-.008-.014.161.161 0 0 1-.007-.015.161.161 0 0 1-.005-.015.161.161 0 0 1-.003-.016.161.161 0 0 1-.002-.016.161.161 0 0 1 0-.011.161.161 0 0 1 0-.016.161.161 0 0 1 .003-.016.161.161 0 0 1 .004-.016.161.161 0 0 1 .006-.015.161.161 0 0 1 .006-.014.161.161 0 0 1 .009-.014.161.161 0 0 1 .01-.013.161.161 0 0 1 .01-.012.161.161 0 0 1 .012-.01.161.161 0 0 1 .014-.01.161.161 0 0 1 .014-.008.161.161 0 0 1 .014-.007.161.161 0 0 1 .016-.005.161.161 0 0 1 .016-.003.161.161 0 0 1 .016-.002.161.161 0 0 1 .01 0z" fill="teal"/><path d="M10.516 2.438a.68.68 0 1 1-1.359 0 .68.68 0 0 1 1.359 0zm0 0" fill="#333"/><path d="M9.261 6.871a.068.068 0 0 1-.055-.107c.185-.26.666-1.003.666-1.32V2.728a.068.068 0 0 1 .136 0v2.718c0 .424-.663 1.358-.692 1.398a.068.068 0 0 1-.055.028zm0 0" opacity=".5" fill="#1a1a1a"/><path d="M9.157 6.854a.068.068 0 0 1-.055-.108c.185-.26.666-1.002.666-1.319V2.71a.068.068 0 0 1 .136 0v2.717c0 .425-.663 1.359-.692 1.398a.068.068 0 0 1-.055.029zm0 0" fill="#aab2bd"/><path d="M10.108 2.642c0 .037-.03.068-.068.068h-.407a.068.068 0 0 1-.068-.068v-.408c0-.037.03-.068.068-.068h.407c.038 0 .068.031.068.068zm0 0" fill="#ccd1d9"/><path d="M9.134 7.296a.067.067 0 0 1-.04-.013l-.188-.133a.068.068 0 0 1 .078-.11l.19.132a.068.068 0 0 1-.04.124zm0 0" fill="#aab2bd"/><path d="M8.98 7.41a.06.06 0 0 1-.089.02l-.222-.157a.06.06 0 0 1-.011-.09l.357-.414a.077.077 0 0 1 .1-.012l.112.078c.03.021.04.066.022.098zm0 0" fill="#ccd1d9"/></svg>

<?xml version="1.0" encoding="UTF-8" standalone="no"?>
<svg
   xmlns:dc="http://purl.org/dc/elements/1.1/"
   xmlns:cc="http://creativecommons.org/ns#"
   xmlns:rdf="http://www.w3.org/1999/02/22-rdf-syntax-ns#"
   xmlns:svg="http://www.w3.org/2000/svg"
   xmlns="http://www.w3.org/2000/svg"
   xmlns:xlink="http://www.w3.org/1999/xlink"
   xmlns:sodipodi="http://sodipodi.sourceforge.net/DTD/sodipodi-0.dtd"
   xmlns:inkscape="http://www.inkscape.org/namespaces/inkscape"
   width="48"
   height="48"
   viewBox="0 0 12.7 12.7"
   version="1.1"
   id="svg84"
   sodipodi:docname="qtractor.svg"
   inkscape:version="0.92.4 (5da689c313, 2019-01-14)">
  <metadata
     id="metadata88">
    <rdf:RDF>
      <cc:Work
         rdf:about="">
        <dc:format>image/svg+xml</dc:format>
        <dc:type
           rdf:resource="http://purl.org/dc/dcmitype/StillImage" />
        <dc:title></dc:title>
      </cc:Work>
    </rdf:RDF>
  </metadata>
  <sodipodi:namedview
     pagecolor="#ffffff"
     bordercolor="#666666"
     borderopacity="1"
     objecttolerance="10"
     gridtolerance="10"
     guidetolerance="10"
     inkscape:pageopacity="0"
     inkscape:pageshadow="2"
     inkscape:window-width="1112"
     inkscape:window-height="480"
     id="namedview86"
     showgrid="false"
     inkscape:zoom="4.9166667"
     inkscape:cx="2.1355932"
     inkscape:cy="24"
     inkscape:window-x="0"
     inkscape:window-y="25"
     inkscape:window-maximized="0"
     inkscape:current-layer="svg84" />
  <defs
     id="defs52">
    <linearGradient
       id="f">
      <stop
         offset="0"
         stop-color="#28170b"
         id="stop2" />
      <stop
         offset="1"
         stop-color="#ffe6d5"
         id="stop4" />
    </linearGradient>
    <linearGradient
       id="e">
      <stop
         offset="0"
         stop-color="#483745"
         id="stop7" />
      <stop
         offset="1"
         stop-color="#e3dbe2"
         id="stop9" />
    </linearGradient>
    <linearGradient
       id="a">
      <stop
         offset="0"
         id="stop12" />
      <stop
         offset="1"
         stop-opacity="0"
         id="stop14" />
    </linearGradient>
    <linearGradient
       id="b">
      <stop
         offset="0"
         stop-color="#214478"
         id="stop17" />
      <stop
         offset="1"
         stop-color="#3771c8"
         id="stop19" />
    </linearGradient>
    <linearGradient
       id="c">
      <stop
         offset="0"
         stop-color="#fff"
         id="stop22" />
      <stop
         offset="1"
         stop-color="#fff"
         stop-opacity="0"
         id="stop24" />
    </linearGradient>
    <linearGradient
       id="d">
      <stop
         offset="0"
         stop-color="#ffe253"
         id="stop27" />
      <stop
         offset="1"
         stop-color="#c8ab37"
         id="stop29" />
    </linearGradient>
    <linearGradient
       y2="18.016"
       x2="39.961"
       y1="18.016"
       x1="8.131"
       gradientUnits="userSpaceOnUse"
       id="h"
       gradientTransform="matrix(0.2157,0,0,0.2157,1.169,1.94)">
      <stop
         offset="0"
         stop-color="#fff"
         id="stop32" />
      <stop
         offset=".123"
         stop-color="#c4c4c4"
         id="stop34" />
      <stop
         offset=".247"
         stop-color="#909090"
         id="stop36" />
      <stop
         offset=".372"
         stop-color="#646464"
         id="stop38" />
      <stop
         offset=".497"
         stop-color="#404040"
         id="stop40" />
      <stop
         offset=".622"
         stop-color="#242424"
         id="stop42" />
      <stop
         offset=".748"
         stop-color="#101010"
         id="stop44" />
      <stop
         offset=".873"
         stop-color="#040404"
         id="stop46" />
      <stop
         offset="1"
         id="stop48" />
    </linearGradient>
    <radialGradient
       xlink:href="#e"
       id="g"
       cx="6.35"
       cy="290.65"
       fx="6.35"
       fy="290.65"
       r="5.35"
       gradientTransform="matrix(0.99998,-0.00687,0.00893,1.30027,-2.6,-371.53)"
       gradientUnits="userSpaceOnUse" />
  </defs>
  <path
     d="M 6.35,0.1 C 4.81,0.1 3.57,0.39 2.66,0.97 A 3.67,3.67 0 0 0 1,4.22 c 0,1.91 1.54,4.47 2.01,5.2 0.54,0.85 1.13,1.61 1.65,2.16 0.68,0.7 1.21,1.03 1.7,1.03 0.47,0 1,-0.33 1.68,-1.03 0.52,-0.55 1.11,-1.31 1.65,-2.15 0.47,-0.74 2,-3.3 2,-5.21 0,-1.42 -0.57,-2.54 -1.65,-3.25 A 6.75,6.75 0 0 0 6.35,0.09 Z"
     id="path54"
     style="fill:url(#g)"
     inkscape:connector-curvature="0" />
  <path
     d="M 6.349,1.894 A 3.931,3.931 0 0 0 2.417,5.826 3.931,3.931 0 0 0 6.35,9.757 3.931,3.931 0 0 0 10.281,5.826 3.931,3.931 0 0 0 6.35,1.894 Z m 0,3.238 A 0.694,0.694 0 0 1 7.042,5.826 0.694,0.694 0 0 1 6.349,6.519 0.694,0.694 0 0 1 5.655,5.826 0.694,0.694 0 0 1 6.349,5.132 Z"
     id="path56"
     inkscape:connector-curvature="0"
     style="opacity:0.3;fill:#ffffff" />
  <path
     d="M 1.04,3.9 C 1.04,4 1,4.1 1,4.22 c 0,1.91 1.54,4.47 2.01,5.2 0.54,0.85 1.13,1.61 1.65,2.16 0.68,0.7 1.21,1.03 1.69,1.03 0.48,0 1.01,-0.33 1.69,-1.03 0.52,-0.55 1.11,-1.31 1.65,-2.15 0.47,-0.74 2,-3.3 2,-5.21 C 11.69,4.11 11.67,4.01 11.66,3.9 11.64,4.32 11.58,4.76 11.45,5.2 11.3,5.73 11.09,6.25 10.87,6.73 10.43,7.7 9.92,8.53 9.69,8.9 9.15,9.74 8.56,10.5 8.04,11.05 7.7,11.4 7.4,11.66 7.12,11.83 6.84,12 6.59,12.08 6.35,12.08 6.11,12.08 5.85,12 5.58,11.83 A 4.76,4.76 0 0 1 4.66,11.05 14.41,14.41 0 0 1 3.01,8.9 C 2.78,8.53 2.27,7.7 1.83,6.73 1.61,6.25 1.4,5.73 1.25,5.21 1.12,4.76 1.06,4.32 1.04,3.9 Z"
     id="path58"
     inkscape:connector-curvature="0"
     style="opacity:0.5" />
  <path
     d="m 8.445,8.33 c 0,0.54 -0.57,0.82 -1.06,0.96 -0.72,0.2 -1.3,0.18 -1.91,0 C 4.975,9.14 4.505,8.84 4.505,8.33 V 6.47 c 0,-0.62 0.46,-1 0.97,-1 h 1.7 c 0.65,0 1.29,-0.66 1.28,-1.31 V 3.5 h 0.85 c 0.56,0 0.82,0.41 0.96,0.96 0.19,0.76 0.2,1.33 0,1.93 -0.2,0.58 -0.4,1.03 -0.96,1.03 h -2.87 2 z"
     id="path60"
     inkscape:connector-curvature="0"
     style="fill:none" />
  <path
     d="m 5.323,2.156 a 3.396,3.396 0 0 1 2.037,0 c 0.533,0.15 1.023,0.48 1.023,1.023 v 2.08 c 0,0.298 -0.426,0.97 -1.023,0.97 H 5.462 c -0.533,0 -1.28,0.586 -1.28,1.278 v 0.81 H 3.277 C 2.68,8.317 2.402,7.881 2.253,7.294 2.051,6.474 2.04,5.866 2.253,5.237 2.466,4.618 2.68,4.139 3.277,4.139 H 6.337 4.204 V 3.094 c 0,-0.426 0.512,-0.768 1.12,-0.938 z"
     id="path62"
     inkscape:connector-curvature="0"
     style="fill:none" />
  <path
     d="M 6.349,2.159 A 3.667,3.667 0 0 0 2.682,5.826 3.667,3.667 0 0 0 6.35,9.493 3.667,3.667 0 0 0 10.017,5.826 3.667,3.667 0 0 0 6.35,2.159 Z m 0,3.02 A 0.647,0.647 0 0 1 6.996,5.826 0.647,0.647 0 0 1 6.349,6.473 0.647,0.647 0 0 1 5.702,5.826 0.647,0.647 0 0 1 6.349,5.179 Z"
     id="path64"
     inkscape:connector-curvature="0"
     style="fill:#151e25" />
  <path
     d="M 6.349,2.374 A 3.451,3.451 0 0 0 2.898,5.826 3.451,3.451 0 0 0 6.348,9.277 3.451,3.451 0 0 0 9.8,5.826 3.451,3.451 0 0 0 6.35,2.374 Z m 0,2.805 A 0.647,0.647 0 0 1 6.996,5.826 0.647,0.647 0 0 1 6.349,6.473 0.647,0.647 0 0 1 5.702,5.826 0.647,0.647 0 0 1 6.349,5.179 Z"
     id="path66"
     style="opacity:0.1;fill:url(#h)"
     inkscape:connector-curvature="0" />
  <path
     d="m 6.349,5.664 a 0.161,0.161 0 0 0 -0.011,0 A 0.161,0.161 0 0 0 6.322,5.667 0.161,0.161 0 0 0 6.306,5.67 0.161,0.161 0 0 0 6.29,5.675 0.161,0.161 0 0 0 6.276,5.682 0.161,0.161 0 0 0 6.262,5.69 0.161,0.161 0 0 0 6.248,5.7 0.161,0.161 0 0 0 6.236,5.71 0.161,0.161 0 0 0 6.226,5.722 0.161,0.161 0 0 0 6.216,5.735 0.161,0.161 0 0 0 6.207,5.749 0.161,0.161 0 0 0 6.201,5.763 0.161,0.161 0 0 0 6.195,5.778 0.161,0.161 0 0 0 6.191,5.794 0.161,0.161 0 0 0 6.188,5.81 a 0.161,0.161 0 0 0 0,0.016 0.161,0.161 0 0 0 0,0.011 0.161,0.161 0 0 0 0.002,0.016 0.161,0.161 0 0 0 0.003,0.016 0.161,0.161 0 0 0 0.005,0.015 0.161,0.161 0 0 0 0.007,0.015 0.161,0.161 0 0 0 0.008,0.014 0.161,0.161 0 0 0 0.01,0.013 0.161,0.161 0 0 0 0.01,0.012 0.161,0.161 0 0 0 0.012,0.011 0.161,0.161 0 0 0 0.013,0.01 0.161,0.161 0 0 0 0.014,0.008 0.161,0.161 0 0 0 0.014,0.008 0.161,0.161 0 0 0 0.015,0.005 0.161,0.161 0 0 0 0.016,0.004 0.161,0.161 0 0 0 0.016,0.002 0.161,0.161 0 0 0 0.016,0.001 0.161,0.161 0 0 0 0.011,0 A 0.161,0.161 0 0 0 6.376,5.984 0.161,0.161 0 0 0 6.392,5.981 0.161,0.161 0 0 0 6.407,5.976 0.161,0.161 0 0 0 6.422,5.97 0.161,0.161 0 0 0 6.436,5.961 0.161,0.161 0 0 0 6.449,5.951 0.161,0.161 0 0 0 6.461,5.941 0.161,0.161 0 0 0 6.472,5.93 0.161,0.161 0 0 0 6.482,5.917 0.161,0.161 0 0 0 6.49,5.903 0.161,0.161 0 0 0 6.497,5.889 0.161,0.161 0 0 0 6.503,5.874 0.161,0.161 0 0 0 6.507,5.858 0.161,0.161 0 0 0 6.509,5.842 0.161,0.161 0 0 0 6.51,5.826 0.161,0.161 0 0 0 6.51,5.814 0.161,0.161 0 0 0 6.508,5.798 0.161,0.161 0 0 0 6.504,5.783 0.161,0.161 0 0 0 6.499,5.767 0.161,0.161 0 0 0 6.492,5.752 0.161,0.161 0 0 0 6.485,5.739 0.161,0.161 0 0 0 6.475,5.726 0.161,0.161 0 0 0 6.465,5.713 0.161,0.161 0 0 0 6.453,5.703 0.161,0.161 0 0 0 6.44,5.693 0.161,0.161 0 0 0 6.426,5.684 0.161,0.161 0 0 0 6.412,5.677 0.161,0.161 0 0 0 6.397,5.672 0.161,0.161 0 0 0 6.381,5.668 0.161,0.161 0 0 0 6.365,5.665 a 0.161,0.161 0 0 0 -0.016,0 z"
     id="path68"
     inkscape:connector-curvature="0"
     style="fill:#333333" />
  <path
     d="m 6.349,4.316 a 1.51,1.51 0 0 0 -1.51,1.51 1.51,1.51 0 0 0 1.51,1.51 1.51,1.51 0 0 0 1.51,-1.51 1.51,1.51 0 0 0 -1.51,-1.51 z m 0,1.348 a 0.161,0.161 0 0 1 0.016,0.001 0.161,0.161 0 0 1 0.016,0.003 0.161,0.161 0 0 1 0.016,0.004 0.161,0.161 0 0 1 0.015,0.005 0.161,0.161 0 0 1 0.014,0.007 0.161,0.161 0 0 1 0.014,0.008 0.161,0.161 0 0 1 0.013,0.01 0.161,0.161 0 0 1 0.011,0.011 0.161,0.161 0 0 1 0.011,0.013 0.161,0.161 0 0 1 0.01,0.013 0.161,0.161 0 0 1 0.007,0.013 0.161,0.161 0 0 1 0.007,0.015 0.161,0.161 0 0 1 0.005,0.016 0.161,0.161 0 0 1 0.004,0.015 0.161,0.161 0 0 1 0.002,0.016 0.161,0.161 0 0 1 0,0.012 A 0.161,0.161 0 0 1 6.509,5.842 0.161,0.161 0 0 1 6.507,5.858 0.161,0.161 0 0 1 6.503,5.874 0.161,0.161 0 0 1 6.497,5.889 0.161,0.161 0 0 1 6.49,5.903 0.161,0.161 0 0 1 6.482,5.917 0.161,0.161 0 0 1 6.472,5.93 0.161,0.161 0 0 1 6.462,5.941 0.161,0.161 0 0 1 6.449,5.951 0.161,0.161 0 0 1 6.436,5.961 0.161,0.161 0 0 1 6.422,5.97 0.161,0.161 0 0 1 6.407,5.976 0.161,0.161 0 0 1 6.392,5.981 0.161,0.161 0 0 1 6.376,5.984 0.161,0.161 0 0 1 6.36,5.987 a 0.161,0.161 0 0 1 -0.011,0 0.161,0.161 0 0 1 -0.016,0 A 0.161,0.161 0 0 1 6.317,5.984 0.161,0.161 0 0 1 6.301,5.98 0.161,0.161 0 0 1 6.286,5.975 0.161,0.161 0 0 1 6.272,5.967 0.161,0.161 0 0 1 6.258,5.959 0.161,0.161 0 0 1 6.245,5.949 0.161,0.161 0 0 1 6.233,5.939 0.161,0.161 0 0 1 6.223,5.926 0.161,0.161 0 0 1 6.213,5.913 0.161,0.161 0 0 1 6.205,5.899 0.161,0.161 0 0 1 6.198,5.884 0.161,0.161 0 0 1 6.193,5.869 0.161,0.161 0 0 1 6.19,5.853 0.161,0.161 0 0 1 6.188,5.837 a 0.161,0.161 0 0 1 0,-0.011 0.161,0.161 0 0 1 0,-0.016 A 0.161,0.161 0 0 1 6.191,5.794 0.161,0.161 0 0 1 6.195,5.778 0.161,0.161 0 0 1 6.201,5.763 0.161,0.161 0 0 1 6.207,5.749 0.161,0.161 0 0 1 6.216,5.735 0.161,0.161 0 0 1 6.226,5.722 0.161,0.161 0 0 1 6.236,5.71 0.161,0.161 0 0 1 6.248,5.7 0.161,0.161 0 0 1 6.262,5.69 0.161,0.161 0 0 1 6.276,5.682 0.161,0.161 0 0 1 6.29,5.675 0.161,0.161 0 0 1 6.306,5.67 0.161,0.161 0 0 1 6.322,5.667 0.161,0.161 0 0 1 6.338,5.665 a 0.161,0.161 0 0 1 0.01,0 z"
     id="path70"
     inkscape:connector-curvature="0"
     style="fill:#008080" />
  <path
     d="m 10.516,2.438 a 0.68,0.68 0 1 1 -1.359,0 0.68,0.68 0 0 1 1.359,0 z m 0,0"
     id="path72"
     inkscape:connector-curvature="0"
     style="fill:#333333" />
  <path
     d="M 9.261,6.871 A 0.068,0.068 0 0 1 9.206,6.764 C 9.391,6.504 9.872,5.761 9.872,5.444 V 2.728 a 0.068,0.068 0 0 1 0.136,0 v 2.718 c 0,0.424 -0.663,1.358 -0.692,1.398 A 0.068,0.068 0 0 1 9.261,6.872 Z m 0,0"
     id="path74"
     inkscape:connector-curvature="0"
     style="opacity:0.5;fill:#1a1a1a" />
  <path
     d="M 9.157,6.854 A 0.068,0.068 0 0 1 9.102,6.746 C 9.287,6.486 9.768,5.744 9.768,5.427 V 2.71 a 0.068,0.068 0 0 1 0.136,0 v 2.717 c 0,0.425 -0.663,1.359 -0.692,1.398 A 0.068,0.068 0 0 1 9.157,6.854 Z m 0,0"
     id="path76"
     inkscape:connector-curvature="0"
     style="fill:#aab2bd" />
  <path
     d="m 10.108,2.642 c 0,0.037 -0.03,0.068 -0.068,0.068 H 9.633 A 0.068,0.068 0 0 1 9.565,2.642 V 2.234 c 0,-0.037 0.03,-0.068 0.068,-0.068 h 0.407 c 0.038,0 0.068,0.031 0.068,0.068 z m 0,0"
     id="path78"
     inkscape:connector-curvature="0"
     style="fill:#ccd1d9" />
  <path
     d="M 9.134,7.296 A 0.067,0.067 0 0 1 9.094,7.283 L 8.906,7.15 A 0.068,0.068 0 0 1 8.984,7.04 l 0.19,0.132 a 0.068,0.068 0 0 1 -0.04,0.124 z m 0,0"
     id="path80"
     inkscape:connector-curvature="0"
     style="fill:#aab2bd" />
  <path
     d="M 8.98,7.41 A 0.06,0.06 0 0 1 8.891,7.43 L 8.669,7.273 A 0.06,0.06 0 0 1 8.658,7.183 L 9.015,6.769 a 0.077,0.077 0 0 1 0.1,-0.012 l 0.112,0.078 c 0.03,0.021 0.04,0.066 0.022,0.098 z m 0,0"
     id="path82"
     inkscape:connector-curvature="0"
     style="fill:#ccd1d9" />
</svg>
